assets/themes/grb_import/housenumber_blank.svg

<?xml version="1.0" encoding="UTF-8" standalone="yes"?>
<svg xmlns="http://www.w3.org/2000/svg" xmlns:xlink="http://www.w3.org/1999/xlink" width="371px" height="190px" viewBox="0 0 371 190" version="1.1">
  <g id="surface1">
    <path style="fill-rule:nonzero;fill:rgb(100%,96.078432%,78.431374%);fill-opacity:1;stroke-width:1;stroke-linecap:butt;stroke-linejoin:miter;stroke:rgb(0%,0%,0%);stroke-opacity:1;stroke-miterlimit:4;" d="M 14.044497 -0.000000000000007096 L 157.533308 -0.000000000000007096 C 165.313802 -0.000000000000007096 171.57871 6.264194 171.57871 14.044297 L 171.57871 73.838707 C 171.57871 81.61881 165.313802 87.883003 157.533308 87.883003 L 14.044497 87.883003 C 6.264002 87.883003 0.00090314 81.61881 0.00090314 73.838707 L 0.00090314 14.044297 C 0.00090314 6.264194 6.264002 -0.000000000000007096 14.044497 -0.000000000000007096 Z M 14.044497 -0.000000000000007096 " transform="matrix(2.159848,0,0,2.161965,0.208987,0.000000000000015341)"/>
    <path style="fill:none;stroke-width:5.0152;stroke-linecap:butt;stroke-linejoin:miter;stroke:rgb(98.039216%,49.019608%,41.176471%);stroke-opacity:1;stroke-miterlimit:4;" d="M 8.747177 22.772972 L 8.747177 65.005236 C 15.786155 65.005236 22.825134 72.044549 22.825134 79.083862 L 148.642348 79.083862 C 148.642348 72.044549 155.681326 65.005236 162.720304 65.005236 L 162.720304 22.772972 C 155.681326 22.772972 148.642348 15.733659 148.642348 8.694346 L 22.825134 8.694346 C 22.825134 15.733659 15.786155 22.772972 8.747177 22.772972 Z M 8.747177 22.772972 " transform="matrix(2.159848,0,0,2.161965,0.208987,0.000000000000015341)"/>
  </g>
</svg>

<?xml version="1.0" encoding="UTF-8" standalone="no"?>
<svg
   version="1.1"
   viewBox="0 0 171.5778 87.883003"
   id="svg12"
   sodipodi:docname="housenumber_blank.svg"
   inkscape:version="1.1.1 (1:1.1+202109281949+c3084ef5ed)"
   width="171.5778"
   height="87.883003"
   xmlns:inkscape="http://www.inkscape.org/namespaces/inkscape"
   xmlns:sodipodi="http://sodipodi.sourceforge.net/DTD/sodipodi-0.dtd"
   xmlns="http://www.w3.org/2000/svg"
   xmlns:svg="http://www.w3.org/2000/svg"
   xmlns:rdf="http://www.w3.org/1999/02/22-rdf-syntax-ns#"
   xmlns:cc="http://creativecommons.org/ns#"
   xmlns:dc="http://purl.org/dc/elements/1.1/">
  <metadata
     id="metadata18">
    <rdf:RDF>
      <cc:Work
         rdf:about="">
        <dc:format>image/svg+xml</dc:format>
        <dc:type
           rdf:resource="http://purl.org/dc/dcmitype/StillImage" />
      </cc:Work>
    </rdf:RDF>
  </metadata>
  <defs
     id="defs16" />
  <sodipodi:namedview
     pagecolor="#ffffff"
     bordercolor="#666666"
     borderopacity="1"
     objecttolerance="10"
     gridtolerance="10"
     guidetolerance="10"
     inkscape:pageopacity="0"
     inkscape:pageshadow="2"
     inkscape:window-width="1920"
     inkscape:window-height="999"
     id="namedview14"
     showgrid="false"
     inkscape:zoom="2.2561926"
     inkscape:cx="-16.620921"
     inkscape:cy="-20.166718"
     inkscape:window-x="0"
     inkscape:window-y="0"
     inkscape:window-maximized="1"
     inkscape:current-layer="svg12"
     inkscape:pagecheckerboard="0" />
  <path
     d="m 14.044,0 h 143.48981 c 7.7801,0 14.044,6.2634 14.044,14.044 v 59.795 c 0,7.7801 -6.2634,14.044 -14.044,14.044 H 14.044 C 6.2639,87.883 0,81.6196 0,73.839 V 14.044 C 0,6.2639 6.2634,0 14.044,0 Z"
     style="fill:#fff5c8;paint-order:normal;fill-opacity:1;stroke:#000000;stroke-opacity:1"
     id="path6"
     inkscape:connector-curvature="0"
     sodipodi:nodetypes="sssssssss" />
  <path
     d="m 8.747,22.773 v 42.233 c 7.0389,0 14.078,7.0389 14.078,14.078 h 125.81781 c 0,-7.0389 7.0389,-14.078 14.078,-14.078 V 22.773 c -7.0389,0 -14.078,-7.0389 -14.078,-14.078 H 22.825 c 0,7.0389 -7.0389,14.078 -14.078,14.078 z"
     id="path8"
     inkscape:connector-curvature="0"
     style="fill:none;stroke:#fa7d69;stroke-width:5.0152;stroke-opacity:1"
     sodipodi:nodetypes="ccccccccc" />
</svg>
